!!!id: EG012
!!!page: 29-30
!!!COM: Anonymous
!!!LYR: Anonymous
!!!PTL@@FR: Chansons Populaires du Canada
!!!OTL@@FR: Dans les prisons de Nantes, Var. 2
!!!PUB: G. E. Desbarats
!!!YEM:
!!!PDT: 1865
!!!SMA:
!!!OMD:
!!!AGN-Laforte:
!!!AGN-type:
!!!AGN-rime:
**kern
*clefG2
*k[f#]
*G:
*M2/4
*
*
!LO:TX:a:i:t=Lentement.
8d
=1
8.g
16a
8b
8dd
=2
8ddL
8ccJ
8b
8a
=3
8.g
16a
8b
8dd
!!LO:PB:g=original
=4
8ddL
8ccJ
8b
16r
16dd
=5
8dd
8b
4cc
=6
4dd
8b
16b/
16a
=7
8g
8b/
4cc
!!LO:PB:g=original
=8
8b
16r
16dd
8dd
8b
=9
4cc
4dd
=10
8b/
16b/
16g
8a
8a
=11
4.g
==||
8r
==||
*
*
==|
*-
